source/img/icons/icon-start-mining-now-right.svg

<svg width="140" height="186" viewBox="0 0 140 186" fill="none" xmlns="http://www.w3.org/2000/svg">
<path d="M139.645 74.3938C142.502 54.9668 127.761 44.4534 107.42 37.4826L114.048 11.0848L98.0489 7.08512L91.6495 32.7972C87.4213 31.7688 83.0788 30.7403 78.7363 29.8261L85.1357 3.99966L69.1371 0L62.6233 26.2835C59.0808 25.4836 55.6525 24.6836 52.3385 23.8837V23.7694L30.1689 18.2842L25.9407 35.4256C25.9407 35.4256 37.8254 38.1682 37.5968 38.2825C44.1106 39.8824 45.2534 44.2249 45.0248 47.6531L37.4826 77.7078C37.9397 77.822 38.5111 77.9363 39.1967 78.2791C38.6253 78.1649 38.054 78.0506 37.4826 77.822L26.9692 119.876C26.1692 121.818 24.1123 124.79 19.6555 123.647C19.7698 123.875 7.99933 120.79 7.99933 120.79L0 139.188L20.9125 144.445C24.7979 145.474 28.569 146.388 32.3401 147.416L25.7121 174.043L41.7108 178.042L48.3388 151.644C52.6813 152.787 57.0238 153.93 61.1377 154.958L54.624 181.242L70.6227 185.242L77.2507 158.615C104.677 163.758 125.247 161.701 133.817 136.903C140.788 117.019 133.475 105.477 119.076 97.9346C129.703 95.5348 137.589 88.564 139.645 74.3938ZM102.963 125.818C98.0489 145.702 64.4517 134.96 53.5955 132.217L62.3948 96.9062C73.251 99.6488 108.22 105.02 102.963 125.818ZM107.991 74.0509C103.42 92.2208 75.5365 82.9645 66.5087 80.6789L74.5081 48.6816C83.5359 50.9672 112.676 55.1954 107.991 74.0509Z" fill="url(#paint0_linear)"/>
<defs>
<linearGradient id="paint0_linear" x1="70" y1="0" x2="70" y2="185.242" gradientUnits="userSpaceOnUse">
<stop stop-color="white" stop-opacity="0.16"/>
<stop offset="1" stop-color="white" stop-opacity="0"/>
</linearGradient>
</defs>
</svg>

<svg width="140" height="186" fill="none" xmlns="http://www.w3.org/2000/svg"><path d="M139.645 74.394c2.857-19.427-11.884-29.94-32.225-36.911l6.628-26.398-16-4-6.398 25.712c-4.229-1.028-8.571-2.057-12.914-2.97L85.136 4 69.137 0l-6.514 26.284c-3.542-.8-6.97-1.6-10.284-2.4v-.115l-22.17-5.485-4.228 17.142s11.884 2.742 11.656 2.856c6.514 1.6 7.656 5.943 7.428 9.371l-7.542 30.055c.457.114 1.028.228 1.714.571-.572-.114-1.143-.228-1.714-.457l-10.514 42.054c-.8 1.942-2.857 4.914-7.314 3.771C19.77 123.875 8 120.79 8 120.79l-8 18.398 20.913 5.257c3.885 1.029 7.656 1.943 11.427 2.971l-6.628 26.627 15.999 3.999 6.628-26.398c4.342 1.143 8.685 2.286 12.799 3.314l-6.514 26.284 15.999 4 6.628-26.627c27.426 5.143 47.996 3.086 56.566-21.712 6.971-19.884-.342-31.426-14.741-38.968 10.627-2.4 18.513-9.371 20.569-23.541zm-36.682 51.424c-4.914 19.884-38.511 9.142-49.367 6.399l8.799-35.31c10.856 2.742 45.825 8.113 40.568 28.911zm5.028-51.767c-4.571 18.17-32.454 8.913-41.482 6.628l8-31.997c9.027 2.285 38.167 6.513 33.482 25.369z" fill="url(#paint0_linear)"/><defs><linearGradient id="paint0_linear" x1="70" y1="0" x2="70" y2="185.242" gradientUnits="userSpaceOnUse"><stop stop-color="#fff" stop-opacity=".16"/><stop offset="1" stop-color="#fff" stop-opacity="0"/></linearGradient></defs></svg>
